X:1
T: Lumgair's Fancy
C:Bruce Shawyer
R:Jig
Q:180
K:D
M:6/8
L:1/16
a2|a2f2d2 d2e2f2|e2c2A2 A2B2c2|d2e2f2 e2f2g2|f2g2a2 b4a2|a2f2d2 d2e2f2|g2f2e2 c2d2e2|d2e2f2 g2f2e2|A2B2c2 d4a2|
a2f2d2 d2e2f2|e2c2A2 A2B2c2|d2e2f2 e2f2g2|f2g2a2 b4a2|a2f2d2 d2e2f2|g2f2e2 c2d2e2|d2e2f2 g2f2e2|A2B2c2 d4d2|
c2d2e2 e2d2c2|d2e2f2 f2e2d2|e2f2^g2 g2f2e2|a2e2c2 A4d2|c2d2e2 e2f2g2|f2e2d2 d2c2B2|B2c2d2 e2d2B2|c2B2A2 A4d2|
c2d2e2 e2d2c2|d2e2f2 f2e2d2|e2f2^g2 g2f2e2|a2e2c2 A4d2|a2f2d2 d2e2f2|g2f2e2 c2d2e2|d2e2f2 g2f2e2|A2B2c2 d4||
